www/assets/icons/question_mark.svg

<svg width="24" height="24" viewBox="0 0 24 24" xmlns="http://www.w3.org/2000/svg" fill='currentColor'><path d="M11.0688 12.35C11.8388 10.96 13.3188 10.14 14.1788 8.91C15.0888 7.62 14.5788 5.21 11.9988 5.21C10.3088 5.21 9.47882 6.49 9.12882 7.55L6.53882 6.46C7.24882 4.33 9.17882 2.5 11.9888 2.5C14.3388 2.5 15.9488 3.57 16.7688 4.91C17.4688 6.06 17.8788 8.21 16.7988 9.81C15.5988 11.58 14.4488 12.12 13.8288 13.26C13.5788 13.72 13.4788 14.02 13.4788 15.5H10.5888C10.5788 14.72 10.4588 13.45 11.0688 12.35ZM13.9988 19.5C13.9988 20.6 13.0988 21.5 11.9988 21.5C10.8988 21.5 9.99882 20.6 9.99882 19.5C9.99882 18.4 10.8988 17.5 11.9988 17.5C13.0988 17.5 13.9988 18.4 13.9988 19.5Z"/></svg>

<svg xmlns="http://www.w3.org/2000/svg" width="24" height="24" viewBox="0 0 24 24" fill='currentColor'><path d="M11.069 12.35c.77-1.39 2.25-2.21 3.11-3.44.91-1.29.4-3.7-2.18-3.7-1.69 0-2.52 1.28-2.87 2.34l-2.59-1.09c.71-2.13 2.64-3.96 5.45-3.96 2.35 0 3.96 1.07 4.78 2.41.7 1.15 1.11 3.3.03 4.9-1.2 1.77-2.35 2.31-2.97 3.45-.25.46-.35.76-.35 2.24h-2.89c-.01-.78-.13-2.05.48-3.15m2.93 7.15c0 1.1-.9 2-2 2s-2-.9-2-2 .9-2 2-2 2 .9 2 2"/></svg>
